images/icon-website.svg

<svg height="64" viewBox="0 0 64 64" width="64" xmlns="http://www.w3.org/2000/svg"><path d="m53.9092 10.0908c-5.4545-5.4545-14.3284-5.4545-19.7819 0l-6.3595 6.359c-5.4535 5.4545-5.4535 14.328.0005 19.7824 1.7939 1.7942 3.9616 2.9765 6.2526 3.5858-.3665 1.3038-1.0491 2.5153-2.028 3.4942l-6.3585 6.359c-3.117 3.1156-8.1885 3.1175-11.3046 0-3.1166-3.1166-3.1166-8.1885-.0005-11.3051l6.359-6.359c.4173-.4173.8716-.7742 1.3496-1.0797-.6045-2.0719-.7836-4.2397-.5505-6.3714-1.8377.6774-3.5645 1.7389-5.0378 3.2124l-6.3595 6.359c-5.4535 5.4546-5.4535 14.3281.0004 19.7826 2.7267 2.7272 6.3092 4.0904 9.8912 4.0904s7.1645-1.3631 9.8917-4.0904l6.3585-6.359h-.0005c3.1605-3.1595 4.6265-7.6841 3.922-12.1032-.4664-2.9243-1.8222-5.5794-3.922-7.6792-1.3266-1.3266-2.8575-2.3205-4.4911-2.9965-.8488 1.4885-.6769 3.5767-.2835 5.0994.2636 1.0204.6294 1.5607.6705 1.8828.0237.185-.1201.239-.1201.239-1.8493-1.8747-2.4226-4.1401-2.3354-6.0467.0913-1.9941 1.0184-3.9413 2.335-5.258l6.359-6.359c1.5588-1.5583 3.6049-2.3369 5.6521-2.3369 2.0466 0 4.0943.7796 5.6525 2.3369 3.1166 3.1166 3.1166 8.1885 0 11.3051l-6.3585 6.359c-.4229.4227-.884.7829-1.369 1.091.5997 2.0543.7921 4.2171.5556 6.3648 1.8431-.6769 3.5753-1.7398 5.0526-3.2171l6.3585-6.359h-.0005c5.4545-5.4536 5.4545-14.3291.0001-19.7826z" fill-rule="evenodd"/></svg>

<?xml version="1.0" encoding="UTF-8"?>
<svg width="64px" height="64px" viewBox="0 0 64 64" version="1.1" xmlns="http://www.w3.org/2000/svg" xmlns:xlink="http://www.w3.org/1999/xlink">
    <!-- Generator: Sketch 52.6 (67491) - http://www.bohemiancoding.com/sketch -->
    <title>icon-website</title>
    <desc>Created with Sketch.</desc>
    <g id="icon-website" stroke="none" stroke-width="1" fill="none" fill-rule="evenodd">
        <path d="M53.9092,10.0908 C48.4547,4.6363 39.5808,4.6363 34.1273,10.0908 L27.7678,16.4498 C22.3143,21.9043 22.3143,30.7778 27.7683,36.2322 C29.5622,38.0264 31.7299,39.2087 34.0209,39.818 C33.6544,41.1218 32.9718,42.3333 31.9929,43.3122 L25.6344,49.6712 C22.5174,52.7868 17.4459,52.7887 14.3298,49.6712 C11.2132,46.5546 11.2132,41.4827 14.3293,38.3661 L20.6883,32.0071 C21.1056,31.5898 21.5599,31.2329 22.0379,30.9274 C21.4334,28.8555 21.2543,26.6877 21.4874,24.556 C19.6497,25.2334 17.9229,26.2949 16.4496,27.7684 L10.0901,34.1274 C4.6366,39.582 4.6366,48.4555 10.0905,53.91 C12.8172,56.6372 16.3997,58.0004 19.9817,58.0004 C23.5637,58.0004 27.1462,56.6373 29.8734,53.91 L36.2319,47.551 L36.2314,47.551 C39.3919,44.3915 40.8579,39.8669 40.1534,35.4478 C39.687,32.5235 38.3312,29.8684 36.2314,27.7686 C34.9048,26.442 33.3739,25.4481 31.7403,24.7721 C30.8915,26.2606 31.0634,28.3488 31.4568,29.8715 C31.7204,30.8919 32.0862,31.4322 32.1273,31.7543 C32.151,31.9393 32.0072,31.9933 32.0072,31.9933 C30.1579,30.1186 29.5846,27.8532 29.6718,25.9466 C29.7631,23.9525 30.6902,22.0053 32.0068,20.6886 L38.3658,14.3296 C39.9246,12.7713 41.9707,11.9927 44.0179,11.9927 C46.0645,11.9927 48.1122,12.7723 49.6704,14.3296 C52.787,17.4462 52.787,22.5181 49.6704,25.6347 L43.3119,31.9937 C42.889,32.4164 42.4279,32.7766 41.9429,33.0847 C42.5426,35.139 42.735,37.3018 42.4985,39.4495 C44.3416,38.7726 46.0738,37.7097 47.5511,36.2324 L53.9096,29.8734 L53.9091,29.8734 C59.3636,24.4198 59.3636,15.5443 53.9092,10.0908 Z" fill="#000000"></path>
    </g>
</svg>
